!!!ONB: MCCC : IAD0125_01 : Extracted Monophonic Melody
!!!COM: Dvořák, Antonín
!!!OPR: Violin Sonata
!!!OMV: 1
!!!SCT: Op.57 ; B.106
!!!ODT: 1880///
**kern
*staff1
=1
*clefG2
*k[f#]
*G:
*M4/4
2.g
4b[
=2
2b]
4dd
4dd
=3
4ee
2b
4r
=4
8r
8dd
8ee
8dd
8b
8a
4g
=5
4e
4d
8e
8a
4a[
=6
8a]
8a
4a
4g
4r
=7
8r
16r
16g
4g
4d
8r
16r
16b
=8
4b
4g
4dd
4dd
=9
4ee
2b
4r
=10
8r
8gg
8aa
8gg
8ff#
8ee
8dd
8ff#
=11
8ff#
8b
4dd
4cc#
16ee
8.dd
=12
4cc#
4b
2r
=13
2.dd
4r
=14
2dd
2dd[
=15
4dd]
4r
2dd
=16
4aa
4aa
4aa
4aa[
=17
4aa]
4gg#
4aa
4bb
=18
8aa
8ee
4ee
4dd
8r
8dd
=19
2bb
4aa
8aa
8gg
=20
4.ee
8ee
4gg
8dd
8b
=21
8a
8ee
4dd
8b
8b
8dd
8bb
=22
2bb
4aa
12aa
12gg
12ee
=23
4.ee
8ee
4gg
8ee
8dd
=24
8b
8a
4b
4b
4a#
=25
4b
4b
4a#
4b
=26
4b
4a#
4b
4b
=27
4b
4b
4b
4b
=28
4b
4r
2r
=29
8.ee
16dd
4b
4b
4r
=30
2r
8ff#
8a
8cc
8b
=31
2b
2cc
=32
8cc
8b
4a
4b
4cc
=33
4cc#
4f#
2r
=34
4b
4b
8.ee
16dd
4b
=35
2r
4b
4b
=36
8.ff#
16a
8cc
8b
2r
=37
4b
4b
4bb
4bb[
=38
4bb]
4aa
12gg
12ee
12bb
12bb
12gg
12ee
=39
8b
8dd#
4ee
12gg
12ff#
12ee
12gg
12ff#
12ee
=40
4ee
12gg
12ff#
12ee
12gg
12ff#
12ee
12gg
12ff#
12ee
=41
12gg
12ff#
12ee
12gg
12ff#
12ee
4gg
4bb
=42
4b
4ee
4cc
4b
=43
4e
4cc
4b
4cc
=44
4b
4a#
2b
=45
4dd#
8.ee
16ee
4ee
4b
=46
8.ee
16gg
4gg
4ee
8.bb
16eee
=47
4eee
4r
8.gg
16bb
4bb
=48
4r
4ee
4gg
4gg
=49
4gg
8ee
8dd
4b
8ee
8dd
=50
8b
8g
8e
8d
4b
4b-
=51
4a
2.g
=52
2.b
4dd
=53
4dd
4ee
2b
=54
4r
8r
8dd
8ee
8dd
8b
8a
=55
4g
4e
4d
8e
8a
=56
4.a
16a
16a
4a
4g
=57
4r
8r
16r
16g
4g
4d
=58
8r
16r
16b
4b
4g
4dd
=59
4dd
4ee
2b
=60
4r
8r
8gg
8aa
8gg
8ff#
8ee
=61
8dd
8ff#
8ff#
8b
4dd
4cc#
=62
16ee
8.dd
4cc#
4b
4r
=63
2r
2dd
=64
2.dd
4r
=65
2dd
2dd
=66
4aa[
2aa]
4gg#
=67
2aa
4gg#
4aa
=68
4bb
8aa
8ee
4ee
4dd
=69
8r
8dd
2bb
4aa
=70
8aa
8gg
4ee[
8ee]
8ee
4gg
=71
8dd
8b
8a
8ee
4dd
8b
8b
=72
8dd
8bb
2bb
4aa
=73
12aa
12gg
12ee
4ee[
8ee]
8ee
4gg
=74
8ee
8dd
8b
8a
4b
4b
=75
4a#
4b
4b
4a#
=76
4b
4b
4a#
4b
=77
4b
4b
4b
4b
=78
4b
4b
2r
=79
4r
8.ee
16dd
4b
4b
=80
2r
4r
8ff#
8a
=81
8cc
8b
4r
4b
4cc[
=82
4cc]
8cc
8b
4a
4b
=83
4cc
4cc#
4f#
4r
=84
4r
4b
4b
8.ee
16dd
=85
4b
4r
4r
4b
=86
4b
8.ff#
16a
8cc
8b
4r
=87
4r
4b
4b
4bb
=88
2bb
4aa
12gg
12ee
12bb
=89
12bb
12gg
12ee
8b
8dd#
4ee
12gg
12ff#
12ee
=90
12gg
12ff#
12ee
4ee
12gg
12ff#
12ee
12gg
12ff#
12ee
=91
12gg
12ff#
12ee
12gg
12ff#
12ee
12gg
12ff#
12ee
4gg
=92
4bb
4b
4ee
4cc
=93
4b
4e
4cc
4b
=94
4cc
4b
4a#
4b[
=95
4b]
4dd#
8.ee
16ee
4ee
=96
4b
8.ee
16gg
4gg
4ee
=97
8.bb
16eee
4eee
4r
8.gg
16bb
=98
4bb
4r
4ee
4gg
=99
4gg
4gg
8ff
8dd
4b-
=100
8gg
8ff
8dd
8b-
8ff
8dd
8b-
8g
=101
8f
8d
8f
8f
8d
8d
8d
8d
=102
8d
8d
8d
8d
8d
8d
8d
8d
=103
8d
8d
8d
8d
8d
8d
8d
8d
=104
8d
8d
8d
8d
4d
4r
=105
1r
=106
1r
=107
2r
8r
8ff
8gg
8ff
=108
8dd
8cc
4b-
4g
4f
=109
8.g
16cc
4cc
4cc
4cc[
=110
4cc]
4r
8r
16r
16cc#
4cc#
=111
4g#
8r
16r
16ff
4ff
4cc#
=112
8gg#
8ff
8bb-
8gg#
8ff
8cc#
4g#[
=113
2.g#]
4r
=114
4g#
4b-
4f#
4e#
=115
2.d#
8.d#
16cc
=116
4cc
4cc
2d#[
=117
4d#]
8.d#
16cc
4cc
4cc
=118
2cc
4r
8.f
16cc
=119
4cc
4cc
2cc
=120
4r
8.f
16cc
4cc
4cc
=121
2cc#
4r
8.f#
16ff#
=122
4ff#
4ff#
8.ff#
16bb
4bb
=123
4bb
4gg
4ee
4ff#
=124
4dd#
12b
12cc#
12dd#
12dd#
12ee
12ff#
12ee
12ff#
12gg
=125
12gg
12aa
12bb
12cc#
12aa
12cc#
8.dd
16ddd
4ddd
=126
4ddd
4bb-
4gg
4ccc
=127
4ff
12f
12g
12a
12a
12b-
12cc
12b-
12cc
12cc#
=128
12cc#
12dd#
12ff
12gg
12bb-
12cc#
12cc
12gg#
12gg#
12gg#
12gg#
12gg#
=129
12gg#
12gg#
12gg#
12cc
12gg#
12gg#
12gg#
12gg#
12gg#
12gg#
12gg#
12gg#
=130
12cc#
12aa
12aa
12aa
12aa
12aa
12aa
12aa
12aa
12cc#
12aa
12aa
=131
12aa
12aa
12aa
12aa
12aa
12aa
8.dd
16ddd
4ddd
=132
4ddd
8.dd
16ddd
4ddd
4ddd
=133
8.dd
16ddd
4ddd
8.d
16dd
4dd
=134
8.d
16dd
4dd
2g[
=135
4g]
2.b
=136
4dd
4dd
4ee
4b[
=137
4b]
4r
8r
8dd
8ee
8dd
=138
8b
8a
4g
4e
4d
=139
8.e
16a
4a
8a
8a
4a
=140
4g
4r
8r
16r
16g
4g
=141
4d
8r
16r
16b-
4b-
4g
=142
4dd
4dd
4dd#
4dd[
=143
4dd]
4r
4b-
4e
=144
4g
4d
4f
4d
=145
4a
4A
4a
4d
=146
2r
2f[
=147
4f]
4r
2f
=148
2.f
4r
=149
4.ff
8ccc
2ccc
=150
4bb
2ccc
4bb
=151
4ccc
4ddd
8ccc
8gg
4gg
=152
4ff
8r
8ff
2ddd
=153
4ccc
8ccc
8bb-
4.gg
8gg
=154
4bb-
8ff
8dd
8cc
8gg
8ff
8dd[
=155
8dd]
8dd
8dd
8ddd
2ddd
=156
4ccc
12ccc
12bb-
12gg
4.gg
8gg
=157
4bb-
8gg
8ff
8dd
8cc
4dd
=158
4dd
4cc#
4dd
4dd
=159
4cc#
4dd
4dd
4cc#
=160
4dd
4r
2r
=161
1r
=162
2r
8gg
8dd#
4dd[
=163
4dd]
4r
2r
=164
8aa
8dd#
4dd
2bb
=165
4aa
12aa
12gg
12ee
4.ee
8ee
=166
4gg
8dd
8b
8a
8ee
8dd
8b[
=167
8b]
8b
8dd
8bb
2bb
=168
4aa
12aa
12gg
12ee
4.ee
8ee
=169
4gg
8dd
8b
8a
8dd
4g
=170
12b-
12a
12g
12b-
12a
12g
4g
12b-
12a
12g
=171
12b-
12a
12g
12b-
12a
12g
12b-
12a
12g
12b-
12a
12g
=172
4b
4dd
4d
4g
=173
4dd#
4dd
4g
4dd#
=174
4dd
4dd
4cc#
4cc#
=175
2dd
8.b
16a
8.g
16g
=176
4g
4d
8.g
16b
4b
=177
4g
8.dd
16gg
4gg
4r
=178
8.b
16dd
4dd
4r
4ee
=179
4gg
4gg
4gg
8ee
8dd
=180
8b
8g
8.e
16a
4a
4a
=181
2a[
8a]
8g
8.g
16g
=182
4g
4d
8.g
16b
4b
=183
4g
8.dd
16gg
4gg
4r
=184
8.b
16dd
4dd
2a[
=185
4a]
4b-
4b
4g
=186
8d
8B
2.A[
=187
4A]
4B
4c
8B
8dd
=188
8ee
8dd
8b
8g
2e
=189
2d
2r
=190
2r
4r
8r
16r
16dd
=191
4ee
4dd
8r
16r
16d
4e
=192
4d
8r
16r
16dd
2ee[
=193
4ee]
4dd
4b
4g[
=194
2g]
2b
=195
4dd
2.gg
=196
1gg[
=197
2gg]
2r
==
*-
